X:213
T: Abschied
N: A0258
O: Europa, Mitteleuropa, Deutschland
N: Forster I 1539 No. 61.
R: Romanze, Ballade, Lied
M: 4/2
L: 1/4
K: C
 |  |  | C4C4 | B,2C4D2 | B,4G,4 |
D4E4 | D2C4B,A, | B,2C2A,4 | G,4z4 |
C4C4 | B,2C4D2 | B,4G,4 |
D4E4 | D2C4B,A, | B,2C2A,4 | G,4z2
G2 | F2E2D4 | C2F4ED | E4D2
D2 | G4F2E2 | FDD4C2 | D4z2
G,2 | C2D2E2F2 | G4D4 |
F4E4 | D2G4FE | FEDCD2D2 | C8

@@@ Tune index: 213
